X:61
T:T034- Paddy's Resource
S:McGlashan's Scots Measures, c 1778
Q:1/4=120
L:1/8
M:6/8
K:A
B|ABA ECE|ABAf2e|fed cBA|BFFF2B|ABA ECE|\
ABAf2e|efg aed|cAAA2::A|EAc cAE|EGB BGE|\
EAc cBA|cdc ~B2A|Ace agf|edc~B2A|cAF EFA|\
cAAA2:|]

